X: 1999
T: Yine Zevrâk-ı Derûnum
C: Dede Efendi
O: Turkey
F: http://compmusic.upf.edu/node/140
N: mahur--yuruksemai--yuruksemai--yine_zevrak-i--dede_efendi
N: makam= mahur
N: form= yuruksemai
N: usul= yuruksemai = 6/8
M: 6/8
L: 1/16
K: C ^9/8f   
Q: 1/4=108
%%MIDI tuningsystem comma53
g6f2 e4f4 g8  | g4g8a2b2 a2g2g2f2  | \
w:  Ah  *  yi ne  zev  |  râk_ ı  de *  rû  | 
g6f2 e4f4 g8  | g4g8a2b2 a2g2g2f2  | 
w:  num  *  yi ne  zev  |  râk_ ı  de *  rû  | 
g6^f2 a4g2f2 f3ef4  | g2^f2e4 {^9/8f}e2g2^f2e2 d8  | \
w:  num  *  kı rı *  lıp   |  ke *  na *  *  *  re  *  düş  | 
d8 e8 f8  | g4a4 a2c'2b2a2 g3fe2f2  | 
w:  tü    |  *  *  be  *  li  *  yâ  | 
g8 g3fe2f2 g6z2  | g6f2 e4f4 g8  | g4^f2g2 f2e2f2g2 a2g2^1/4f2e2  | 
w:  rim  SAZ  |  Ah  *  da ya nır   |  mı  şi *  *  *  şe *  dir   | 
d8 e4f4 g8  | g4^f2g2 f2e2f2g2 a2g2^1/4f2e2  | \
w:  bu  da ya nır   |  mı  şi *  *  *  şe *  dir   | 
d8 c4d4 e8  | c4e8c4 e8  | 
w:  bu  reh_ i  seng_  |  i  sâ re  düş  | 
d8 c8 B8  | B4A2G2 A2c2B2A2 G3FE2F2  | \
w:  tü    |  *  *  *  be  *  li  *  yâ  | 
G8 d3cB2d2 c6z2  | 
w:  rim  SAZ  | 
c12c2B2 c6z2  | d4e4 d4c4 B6z2  | A8 A2c2_1/4B2A2 A2G2G2F2  | \
w:  Yâr   |  yâr   |  dil de  *  ni *  hâ  | 
G8 d3cB2d2 c6z2  | 
w:  nım   SAZ  | 
c4c8c2B2 c6z2  | d4e4 d4c4 B6z2  | A8 A2c2_1/4B2A2 A2G2G2F2  | 
w:  dost   |  dost   |  ka şı  *  ke *  mâ  | 
G12z4 d8  | d8 d4d4 g8  | g4g8g4 g6=f2  | \
w:  nım   Ta  |  kât  mı  ge lir   |  o  çeşm_ i  mes  | 
a4g2=f2 f2_2/4e2e2d2 d2_3/4e2d2e2  | 
w:  te   *  *  *  *  *  *  El  | 
^f2gag2f2 f2_3/4e2e2d2 e3dc4  | d2_2/4e2^f4 _3/4e2d2d2_1/4e2 d2c2c2B2  | 
w:  bet  *  *  *  *  de  *  o *  lur   |  gö *  ren  *  *  şi *  kes  | 
B8 B3^3/4AG2A2 B6z2  | =f2e2e2d2 d2c2c2_1/4B2 B2A2B2A2  | \
w:  te   SAZ  |  Yâr   | 
A14z2 d8  | 
w:  yâr  af  | 
B6A2 G4A2B2 A2G2G2F2  | G8 d2e2f2g2 a8  | \
w:  fey *  le  e *  fen  |  dim  SAZ  | 
a6g2 ^f4g4 a8  | g4a8_1/4b2c'2 b2a2g2^f2  | 
w:  Âh  *  reh_ i  Mev  |  le vî de  *  Gâ  | 
e2^2/4f2e2d2 ^f4g4 a8  | g4a8_1/4b2c'2 b2a2g2^f2  | \
w:  lip  *  *  *  reh_ i  Mev  |  le vî de  *  Gâ  | 
g4g2z2 g4g4 g8  | 
w:  lip  *  bu  sı fat  | 
g4^f8e2f2 a2g2f2e2  | d8 c'8 _1/4b8  | \
w:  la  kal dı  *  hay  |  rân    | 
a4g2^f2 g4g4 g2f2g2a2  | b2a2g2^f2 e8 z8  | 
w:  *  *  *  be  li  yâ  |  rim   | 
g6^f2 e4f4 g8  | g4^f2g2 f2e2f2g2 a2g2f2e2  | \
w:  Ah  *  ki mi  terk_  |  i  nâm_ *  *  *  ü  *  şâ  | 
d8 e4^f4 g8  | g4^f2g2 ^9/8f2e2^f2g2 a2g2f2e2  | 
w:  ne  ki mi  terk_  |  i  nâm_ *  *  *  ü  *  şâ  | 
d8 c4d4 e8  | c4e8c4 e8  | d8 c8 B8  | B4A2G2 A2c2B2A2 G3^FE2F2  | 
w:  ne  ki mi  i   |  ti bâ re  düş  |  tü    |  *  *  *  be  *  li  *  yâ  | 
G8 d3cB2d2 c6z2  | c12c2B2 c6z2  | d4e4 d4c4 B6z2  | \
w:  rim  SAZ  |  Yâr   |  yâr   | 
A8 A2c2_1/4B2A2 A2G2G2F2  | 
w:  dil de  *  ni *  hâ  | 
G8 d3cB2d2 c6z2  | c4c8c2B2 c6z2  | d4e4 d4c4 B6z2  | \
w:  nım   SAZ  |  dost   |  dost   | 
A8 A2c2_1/4B2A2 A2G2G2F2  | 
w:  ka şı  *  ke *  mâ  | 
G12z4 d8  | d8 d4d4 g8  | g4g8g4 g6=f2  | \
w:  nım   Ta  |  kât  mı  ge lir   |  o  çeşm_ i  mes  | 
a4g2=f2 f2_2/4e2e2d2 d2_3/4e2d2e2  | 
w:  te   *  *  *  *  *  *  El  | 
^f2gag2f2 f2_3/4e2e2d2 e3dc4  | d2_2/4e2^f4 _3/4e2d2d2_1/4e2 d2c2c2B2  | 
w:  bet  *  *  *  *  de  *  o *  lur   |  gö *  ren  *  *  şi *  kes  | 
B8 B3^3/4AG2A2 B6z2  | =f2e2e2d2 d2c2c2_1/4B2 B2A2B2A2  | \
w:  te   SAZ  |  Yâr   | 
A14z2 d8  | 
w:  yâr  af  | 
B6A2 G4A2B2 A2G2G2F2  | G16 z8  | |


